public/avatar/hat/209.svg

<svg xmlns:xlink="http://www.w3.org/1999/xlink" height="92.9" width="100.7" xmlns="http://www.w3.org/2000/svg"><use height="25.5" transform="translate(23 33.7)" width="31" xlink:href="#a"/><defs><g id="a" fill-rule="evenodd"><path d="M-15.65-11.15q4.65-3.6 15.25-3.5L-.15 3.5q-7.65 1.4-10.3 3.75-1.35 1.2-1.15 2.1-1.75-.15-.45-2.45-1.75-11.45-3.6-18.05" transform="translate(15.65 16.05)"/><path d="M10.15 7.35Q7.5 4.95-.15 3.6l-.7-18.35q11.5.1 16.2 3.7-1.9 6.6-3.65 18 1.3 2.3-.45 2.5.2-.9-1.1-2.1M-14.3-5.95-13-.2q-2.05-2.7-1.3-5.75" transform="translate(15.65 16.05)"/><path d="M13.95-5.85q.75 3.05-1.3 5.75l1.3-5.75" transform="translate(15.65 16.05)"/><path d="M5.55-13.5q5.3.85 8.65 2.55l-8.25 16q-7.85-1.6-13.4.2-2.75.9-3.95 2.1.35-1.6-3.4-18.4 9.7-4.2 20.35-2.45" fill="#024ab1" transform="translate(15.65 16.05)"/><path d="M12.5-2.35q-1.65 8.8-1.4 9.85-1.3-1.15-4.15-2.05-5.75-1.8-13.5-.5l-8.25-16q4.4-1.55 10.2-2.3 11.6-1.5 18.8 2.4l-1.7 8.6" fill="#024ab1" transform="translate(15.65 16.05)"/><path d="M12.5-11.75 9.15 3.2Q7.1 1.95 5.6 1.95l.75-15.35 6.15 1.65" fill="#c4d9f2" transform="translate(15.65 16.05)"/><path d="M6.3-13.35q.9-.1 4.65 1.05L8.35 2.65 5.6 1.55l.7-14.9" fill="#367fd6" transform="translate(15.65 16.05)"/><path d="M-11.7-11.95q3.8-1.3 8.4-1.7v.15q-4.15.45-8.4 1.55m.65 16.9L-14-9.55l5.8 11.3q-2.7 1.35-2.85 3.2" fill="#012c6a" transform="translate(15.65 16.05)"/><path d="M.85-1.95 4.5.5 1.55.3l-.6-1.45-.1-.8m-4.15-11.1q-4.2 1.2-2.65 4.45l-.25 1.05q.05 1.65 1.1 1.65.45 0 .9-.3h.05l3.2 2.9-.2 1.95-.7 1.7q-3.95.2-6.35 1.4L-14-9.55l-.3-1.4 2.6-1q4.25-1.1 8.4-1.55v.45" fill="#012c6a" transform="translate(15.65 16.05)"/><path d="M9.2 6.45q1.45 1.3 1.5 2.5-1.4-2.45-6.45-3.4l-4.8-.4Q-8.6 5-11.15 8.95q-.05-2.45 5.25-4.4 2.65-.95 5.3-1.4 6.95.65 9.8 3.3" fill="#333" transform="translate(15.65 16.05)"/><path d="M4.45 1q3.25.8 5.05 2.2 1.9 2.45 1.6 4L9 3.5Q2.5.7-3.7 1.7q-3.1.5-4.9 1.55l-2.8 4.1q-.45-.75.9-2.8l1.45-1.95Q-2-.6 4.45 1" fill="#032b5b" transform="translate(15.65 16.05)"/><path d="M-3.05 1.35Q3.45.5 9 3.45L-.25 4.6q-4.8-.5-10.9 2.75l1-2.1Q-9 3.1-8.4 2.85q2.15-1.05 5.35-1.5" fill="#ffff1c" transform="translate(15.65 16.05)"/><path d="M8.85 3.2q1 .4 2.4 4.45Q4.65 4.1-.25 4.6l-6.9-2.35q10.9-2.4 16 .95M-8.8 3.05l7.25 1.25q-8.1.7-9.55 4.65-1.95-.4 2.3-5.9" fill="#ffff1c" transform="translate(15.65 16.05)"/><path d="M8.45 3q4.25 5.5 2.35 5.9-1.5-4-9.6-4.65L8.45 3" fill="#ffff1c" transform="translate(15.65 16.05)"/><path d="M-11.25 8.55q-.3-1.1 1.05-3.35l1.45-2Q-6.5 1.65-1.2 1.25q-4.15 1-4.1 3.7-4.3 1.25-5.95 3.6" fill="#b79f11" transform="translate(15.65 16.05)"/><path d="M5.2 1.95q2.25.3 3.9 1.5.4.3 1.75 3.3.6 2-.1 1.95Q9.8 6.35 5.1 5.2L.85 4.55q2.5.3 4.35-2.6m-12.2.5Q-7.05 5.4-8.3 6l-2.75 2.7q-.85.25.15-1.9l2.15-3.6L-7 2.45" fill="#e6cf1c" transform="translate(15.65 16.05)"/><path d="M9.75 4.75q1.65 2.65 1 3.75-1.1-2.15-4.6-3 4 .7 3.6-.75M-9.3 3.9q-1.8 3.55.1 2.8-1.45.65-1.85 2-1.55.15 1.75-4.8" fill="#cd7c00" transform="translate(15.65 16.05)"/><path d="M-5.3 4.95q.15-3.1 4.35-3.75l4.25.3-4.1.65q-4 .95-3.5 2.7l-1 .1M3.6 3.3Q2.1 4.8-.75 4.4-2.6 4.3 3.6 3.3" fill="#ffffcf" transform="translate(15.65 16.05)"/><path d="M13.35-5.4q-.6-.6-3.95-1.55L6.15-7.8h-12.6q-4.25.5-7.1 2.4-.45-1.05 3.25-2.15l3.8-.9 12.65.15q2.7.25 7.2 1.8v1.1" fill="#032b5b" transform="translate(15.65 16.05)"/><path d="m-13.55-5.25-.2-.95 1.5-.65-1.3 1.6M12-.25Q8.35-2.8-8-1.5l-2 .35q-2.1.45-2.5 1l-.3-.6q1.5-.75 4.45-1.3 14.75-.75 20.8 1l-.45.8" fill="#032b5b" transform="translate(15.65 16.05)"/><path d="m-.1-2.05-5.55.1q-4.9.15-6.85 1.15-.8-1.8-1-5.05Q-10.8-7.5-6.25-8l6.2.05-.05 5.9" fill="#ffff1c" transform="translate(15.65 16.05)"/><path d="M5.95-8q4.55.5 7.35 2.15-.2 3.25-1 5.05l-4.2-.95-8.9-.3.55-5.9L5.95-8M-13.5-5.85l1 5.05q-.9-1.2-1.05-3.25l.05-1.8" fill="#ffff1c" transform="translate(15.65 16.05)"/><path d="M13.3-5.8q.5 3.2-1 5.05l1-5.05" fill="#ffff1c" transform="translate(15.65 16.05)"/><path d="M6.15-7.95q3.15.5 7 2 .25.25-.05.45L6.35-7.35h-12.7q-2.5-.25-7 2l.05-.5q1.8-1.45 6.85-2.1h12.6m6.5 6.65q-.15.3-.4.35-5.3-2.05-20.4-1L-12.5-1l-.25-.2q10.7-3.15 25.4-.1" fill="#e6cf1c" transform="translate(15.65 16.05)"/><path d="m-9.35-7 .25-.2 1 5.25-.7.1L-9.35-7m5.45-.5.05-.2.35.1.25 5.3-.6-.05-.05-5.15m7.05-.05h.25v5.25l-.5-.15.25-5.1m4.1 5.5.9-5.15.3.15L7.7-2l-.45-.05" fill="#e6cf1c" transform="translate(15.65 16.05)"/><path d="m-9.75-6.55.6 4.25-3.5.75q-.55-1.2-.6-2.45l.1-1 3.4-1.55" fill="#ff3d2b" transform="translate(15.65 16.05)"/><path d="M-10.85-6.1Q-12.1-1.75-9.2-2.3l-3.45.75q-.6-1.65-.6-2.7l.1-.75 2.3-1.1" fill="#892116" transform="translate(15.65 16.05)"/><path d="m-13.15-5 .25-.2q-.2 2.45 2.05 3.25l-1.75.35q-.7-1.45-.7-2.6l.15-.8" fill="#59120c" transform="translate(15.65 16.05)"/><path d="m-10.6-6.05.7-.3.55 3.65Q-10-6.05-10.6-6.05" fill="#fff" transform="translate(15.65 16.05)"/><path d="m-8.75-6.75 4.65-.5v4.4l-3.95.35-.7-4.25" fill="#34f13f" transform="translate(15.65 16.05)"/><path d="m-8.7-6.7 3.3-.4q-2.8 4.15 1.1 4.2l-3.7.4-.7-4.2" fill="#1d8723" transform="translate(15.65 16.05)"/><path d="m-8.7-6.7.55-.05Q-8-3.6-5.4-2.8l-2.6.3-.7-4.2" fill="#064412" transform="translate(15.65 16.05)"/><path d="m-5.25-7.05 1-.1.05 4.1q-.15-3.75-1.05-4" fill="#fff" transform="translate(15.65 16.05)"/><path d="M2.65-2.85-3-2.8l-.15-4.4 6.1-.15-.3 4.5" fill="#00a0fa" transform="translate(15.65 16.05)"/><path d="m-3.15-7.2 4.3-.15Q.1-6.7-.15-4.8q-.25 1.7 1.2 1.85L-3-2.8l-.15-4.4" fill="#005ad2" transform="translate(15.65 16.05)"/><path d="M-3.15-7.2h1.4Q-3.45-5.5-.05-3L-3-2.8l-.15-4.4" fill="#002f90" transform="translate(15.65 16.05)"/><path d="m1.45-7.35 1.25.15q.05 3.7-.25 4.2 0-3.9-1-4.35" fill="#fff" transform="translate(15.65 16.05)"/><path d="m3.65-7.45 4.25.65-.8 4.5-3.5-.45.05-4.7" fill="#34f13f" transform="translate(15.65 16.05)"/><path d="m3.65-7.45 2.75.4q-3.3 3.35.25 4.7l-3.05-.4.05-4.7" fill="#1d8723" transform="translate(15.65 16.05)"/><path d="m3.65-7.45.55.05q-.55 4.1 1.7 4.95l-2.3-.3.05-4.7" fill="#064412" transform="translate(15.65 16.05)"/><path d="M7-3q.55-3.3-.35-4l1.05.3L7-3" fill="#fff" transform="translate(15.65 16.05)"/><path d="M8.5-6.65q.8.05 4.4 1.3.75 1.6-.4 3.85l-4.55-.75.55-4.4" fill="#ff3d2b" transform="translate(15.65 16.05)"/><path d="m8.5-6.65 3.5 1q-1.3 0-.95 2l.6 1.95-3.7-.55.55-4.4" fill="#892116" transform="translate(15.65 16.05)"/><path d="m8.5-6.65.65.15q-1.1 2.9 1.35 4.55l-2.55-.3.55-4.4" fill="#59120c" transform="translate(15.65 16.05)"/><path d="m11.95-5.5.95.25q.4 1.55-.5 3.5.85-2.45-.45-3.75" fill="#fff" transform="translate(15.65 16.05)"/><path d="M6.05-7.65q.1 2.4-2.15 1.05l-3-.2.05 5.65q2 3.4-1 3.25-3.25.2-1.1-3.45.45-3.8.15-5.3l-3.2.45q-1.9 1.25-2-1.35l.15-.9q.5-.8 2.2-.3 4 1.65 1.4-.8-2.95-6.35 2.1-6.5l.85.1q1 .2 1.6.8 1.85 1.85-.9 6.85l2.95-.6q1.9-1.2 1.9 1.25" fill="#1c140c" transform="translate(15.65 16.05)"/><path d="M.05-8.85q1-1.2 1.25-3.4-.1-1.9-1.65-2l-1.2.55q-1.2 2.05 1 4.7.5.9.6.15m5.2.4q.35.75.1 1.4 0 .75-.8.15L.4-7.4v6.3q1.3 2.65.1 2.45l-1.55-.15q-.9.35.25-2.2.6-3.55.15-6.2l-3.9.55q-.9.7-.85-.55l-.05-.95q.1-.85 1.05-.3l3.25.5q.6.1.2-.45-2.15-2.95-1.55-5.35l.4-.9q.6-.85 1.85-.9 1.7-.2 2.2 1.85Q2.3-11.25.6-8.65l-.2.45q-.05.4.6.2l3.4-.6.35-.2q.35-.1.5.35" fill="#ffff1c" transform="translate(15.65 16.05)"/><path d="M-.3-9.35q-2.95-4.2.2-4.5 2.5 1.35-.2 4.5" fill="#024ab1" transform="translate(15.65 16.05)"/><path d="M-.3-9.35q-2.35-4.05-.15-4.05l.85.1q-.75.35-.8 2.2l.1 1.75" fill="#012c6a" transform="translate(15.65 16.05)"/><path d="M-.75-8.6q-2.85-4.5-1.15-6.05.85-.8 2.3-.7-4.45.5-1.15 6.75m-4.35.25.2.1q-.2.8 4.35.95l-3.55.1q-1.8 1.65-1-1.15" fill="#b79f11" transform="translate(15.65 16.05)"/><path d="M-.6-1q.6-1.3.05-6.3 1 .5.25 6.55Q-.8.75.7.95-2.5 2.3-.6-1M.5-7.55q3.65-.05 4.5-1 .45 2.2-.55 1.35L.5-7.55" fill="#b79f11" transform="translate(15.65 16.05)"/><path d="M1.15-9.95q1.6-5.8-2.15-4.55l.85-.6q.95-.35 1.6.6 1 2-.3 4.55M.75.75l-1-.8Q.65.2.2-1.3.9.05.75.75m-5.65-9.2 4 1q-4.1 0-4-1" fill="#fff" transform="translate(15.65 16.05)"/></g></defs></svg>

<?xml version="1.0" encoding="UTF-8" standalone="no"?>
<svg xmlns:xlink="http://www.w3.org/1999/xlink" height="92.9px" width="100.7px" xmlns="http://www.w3.org/2000/svg">
  <g transform="matrix(1.0, 0.0, 0.0, 1.0, 38.65, 49.75)">
    <use height="25.5" transform="matrix(1.0, 0.0, 0.0, 1.0, -15.65, -16.05)" width="31.0" xlink:href="#shape0"/>
  </g>
  <defs>
    <g id="shape0" transform="matrix(1.0, 0.0, 0.0, 1.0, 15.65, 16.05)">
      <path d="M-15.65 -11.15 Q-11.0 -14.75 -0.4 -14.65 L-0.15 3.5 Q-7.8 4.9 -10.45 7.25 -11.8 8.45 -11.6 9.35 -13.35 9.2 -12.05 6.9 -13.8 -4.55 -15.65 -11.15" fill="#000000" fill-rule="evenodd" stroke="none"/>
      <path d="M10.15 7.35 Q7.5 4.95 -0.15 3.6 L-0.85 -14.75 Q10.65 -14.65 15.35 -11.05 13.45 -4.45 11.7 6.95 13.0 9.25 11.25 9.45 11.45 8.55 10.15 7.35" fill="#000000" fill-rule="evenodd" stroke="none"/>
      <path d="M-14.3 -5.95 L-13.0 -0.2 Q-15.05 -2.9 -14.3 -5.95" fill="#000000" fill-rule="evenodd" stroke="none"/>
      <path d="M13.95 -5.85 Q14.7 -2.8 12.65 -0.1 L13.95 -5.85" fill="#000000" fill-rule="evenodd" stroke="none"/>
      <path d="M5.55 -13.5 Q10.85 -12.65 14.2 -10.95 L5.95 5.05 Q-1.9 3.45 -7.45 5.25 -10.2 6.15 -11.4 7.35 -11.05 5.75 -14.8 -11.05 -5.1 -15.25 5.55 -13.5" fill="#024ab1" fill-rule="evenodd" stroke="none"/>
      <path d="M12.5 -2.35 Q10.85 6.45 11.1 7.5 9.8 6.35 6.95 5.45 1.2 3.65 -6.55 4.95 L-14.8 -11.05 Q-10.4 -12.6 -4.6 -13.35 7.0 -14.85 14.2 -10.95 L12.5 -2.35" fill="#024ab1" fill-rule="evenodd" stroke="none"/>
      <path d="M12.5 -11.75 L9.15 3.2 Q7.1 1.95 5.6 1.95 L6.35 -13.4 12.5 -11.75" fill="#c4d9f2" fill-rule="evenodd" stroke="none"/>
      <path d="M6.3 -13.35 Q7.2 -13.45 10.95 -12.3 L8.35 2.65 5.6 1.55 6.3 -13.35" fill="#367fd6" fill-rule="evenodd" stroke="none"/>
      <path d="M-11.7 -11.95 Q-7.9 -13.25 -3.3 -13.65 L-3.3 -13.5 Q-7.45 -13.05 -11.7 -11.95 M-11.05 4.95 L-14.0 -9.55 -8.2 1.75 Q-10.9 3.1 -11.05 4.95" fill="#012c6a" fill-rule="evenodd" stroke="none"/>
      <path d="M0.85 -1.95 L4.5 0.5 1.55 0.3 0.95 -1.15 0.85 -1.95 M-3.3 -13.05 Q-7.5 -11.85 -5.95 -8.6 L-6.2 -7.55 Q-6.15 -5.9 -5.1 -5.9 -4.65 -5.9 -4.2 -6.2 L-4.15 -6.2 -0.95 -3.3 -1.15 -1.35 -1.85 0.35 Q-5.8 0.55 -8.2 1.75 L-14.0 -9.55 -14.3 -10.95 -11.7 -11.95 Q-7.45 -13.05 -3.3 -13.5 L-3.3 -13.05" fill="#012c6a" fill-rule="evenodd" stroke="none"/>
      <path d="M9.2 6.45 Q10.65 7.75 10.7 8.95 9.3 6.5 4.25 5.55 L-0.55 5.15 Q-8.6 5.0 -11.15 8.95 -11.2 6.5 -5.9 4.55 -3.25 3.6 -0.6 3.15 6.35 3.8 9.2 6.45" fill="#333333" fill-rule="evenodd" stroke="none"/>
      <path d="M4.45 1.0 Q7.7 1.8 9.5 3.2 11.4 5.65 11.1 7.2 L9.0 3.5 Q2.5 0.7 -3.7 1.7 -6.8 2.2 -8.6 3.25 L-11.4 7.35 Q-11.85 6.6 -10.5 4.55 L-9.05 2.6 Q-2.0 -0.6 4.45 1.0" fill="#032b5b" fill-rule="evenodd" stroke="none"/>
      <path d="M-3.05 1.35 Q3.45 0.5 9.0 3.45 L-0.25 4.6 Q-5.05 4.1 -11.15 7.35 L-10.15 5.25 Q-9.0 3.1 -8.4 2.85 -6.25 1.8 -3.05 1.35" fill="#ffff1c" fill-rule="evenodd" stroke="none"/>
      <path d="M8.85 3.2 Q9.85 3.6 11.25 7.65 4.65 4.1 -0.25 4.6 L-7.15 2.25 Q3.75 -0.15 8.85 3.2" fill="#ffff1c" fill-rule="evenodd" stroke="none"/>
      <path d="M-8.8 3.05 L-1.55 4.3 Q-9.65 5.0 -11.1 8.95 -13.05 8.55 -8.8 3.05" fill="#ffff1c" fill-rule="evenodd" stroke="none"/>
      <path d="M8.45 3.0 Q12.7 8.5 10.8 8.9 9.3 4.9 1.2 4.25 L8.45 3.0" fill="#ffff1c" fill-rule="evenodd" stroke="none"/>
      <path d="M-11.25 8.55 Q-11.55 7.45 -10.2 5.2 L-8.75 3.2 Q-6.5 1.65 -1.2 1.25 -5.35 2.25 -5.3 4.95 -9.6 6.2 -11.25 8.55" fill="#b79f11" fill-rule="evenodd" stroke="none"/>
      <path d="M5.2 1.95 Q7.45 2.25 9.1 3.45 9.5 3.75 10.85 6.75 11.45 8.75 10.75 8.7 9.8 6.35 5.1 5.2 L0.85 4.55 Q3.35 4.85 5.2 1.95" fill="#e6cf1c" fill-rule="evenodd" stroke="none"/>
      <path d="M-7.0 2.45 Q-7.05 5.4 -8.3 6.0 L-11.05 8.7 Q-11.9 8.95 -10.9 6.8 L-8.75 3.2 -7.0 2.45" fill="#e6cf1c" fill-rule="evenodd" stroke="none"/>
      <path d="M9.75 4.75 Q11.4 7.4 10.75 8.5 9.65 6.35 6.15 5.5 10.15 6.2 9.75 4.75" fill="#cd7c00" fill-rule="evenodd" stroke="none"/>
      <path d="M-9.3 3.9 Q-11.1 7.45 -9.2 6.7 -10.65 7.35 -11.05 8.7 -12.6 8.85 -9.3 3.9" fill="#cd7c00" fill-rule="evenodd" stroke="none"/>
      <path d="M-5.3 4.95 Q-5.15 1.85 -0.95 1.2 L3.3 1.5 -0.8 2.15 Q-4.8 3.1 -4.3 4.85 L-5.3 4.95" fill="#ffffcf" fill-rule="evenodd" stroke="none"/>
      <path d="M3.6 3.3 Q2.1 4.8 -0.75 4.4 -2.6 4.3 3.6 3.3" fill="#ffffcf" fill-rule="evenodd" stroke="none"/>
      <path d="M13.35 -5.4 Q12.75 -6.0 9.4 -6.95 L6.15 -7.8 -6.45 -7.8 Q-10.7 -7.3 -13.55 -5.4 -14.0 -6.45 -10.3 -7.55 L-6.5 -8.45 6.15 -8.3 Q8.85 -8.05 13.35 -6.5 L13.35 -5.4" fill="#032b5b" fill-rule="evenodd" stroke="none"/>
      <path d="M-13.55 -5.25 L-13.75 -6.2 -12.25 -6.85 -13.55 -5.25" fill="#032b5b" fill-rule="evenodd" stroke="none"/>
      <path d="M12.0 -0.25 Q8.35 -2.8 -8.0 -1.5 L-10.0 -1.15 Q-12.1 -0.7 -12.5 -0.15 L-12.8 -0.75 Q-11.3 -1.5 -8.35 -2.05 6.4 -2.8 12.45 -1.05 L12.0 -0.25" fill="#032b5b" fill-rule="evenodd" stroke="none"/>
      <path d="M-0.1 -2.05 L-5.65 -1.95 Q-10.55 -1.8 -12.5 -0.8 -13.3 -2.6 -13.5 -5.85 -10.8 -7.5 -6.25 -8.0 L-0.05 -7.95 -0.1 -2.05" fill="#ffff1c" fill-rule="evenodd" stroke="none"/>
      <path d="M5.95 -8.0 Q10.5 -7.5 13.3 -5.85 13.1 -2.6 12.3 -0.8 L8.1 -1.75 -0.8 -2.05 -0.25 -7.95 5.95 -8.0" fill="#ffff1c" fill-rule="evenodd" stroke="none"/>
      <path d="M-13.5 -5.85 L-12.5 -0.8 Q-13.4 -2.0 -13.55 -4.05 L-13.5 -5.85" fill="#ffff1c" fill-rule="evenodd" stroke="none"/>
      <path d="M13.3 -5.8 Q13.8 -2.6 12.3 -0.75 L13.3 -5.8" fill="#ffff1c" fill-rule="evenodd" stroke="none"/>
      <path d="M6.15 -7.95 Q9.3 -7.45 13.15 -5.95 13.4 -5.7 13.1 -5.5 L6.35 -7.35 -6.35 -7.35 Q-8.85 -7.6 -13.35 -5.35 L-13.3 -5.85 Q-11.5 -7.3 -6.45 -7.95 L6.15 -7.95" fill="#e6cf1c" fill-rule="evenodd" stroke="none"/>
      <path d="M12.65 -1.3 Q12.5 -1.0 12.25 -0.95 6.95 -3.0 -8.15 -1.95 L-12.5 -1.0 -12.75 -1.2 Q-2.05 -4.35 12.65 -1.3" fill="#e6cf1c" fill-rule="evenodd" stroke="none"/>
      <path d="M-9.35 -7.0 L-9.1 -7.2 -8.1 -1.95 -8.8 -1.85 -9.35 -7.0" fill="#e6cf1c" fill-rule="evenodd" stroke="none"/>
      <path d="M-3.9 -7.5 L-3.85 -7.7 -3.5 -7.6 -3.25 -2.3 -3.85 -2.35 -3.9 -7.5" fill="#e6cf1c" fill-rule="evenodd" stroke="none"/>
      <path d="M3.15 -7.55 L3.4 -7.55 3.4 -2.3 2.9 -2.45 3.15 -7.55" fill="#e6cf1c" fill-rule="evenodd" stroke="none"/>
      <path d="M7.25 -2.05 L8.15 -7.2 8.45 -7.05 7.7 -2.0 7.25 -2.05" fill="#e6cf1c" fill-rule="evenodd" stroke="none"/>
      <path d="M-9.75 -6.55 L-9.15 -2.3 -12.65 -1.55 Q-13.2 -2.75 -13.25 -4.0 L-13.15 -5.0 -9.75 -6.55" fill="#ff3d2b" fill-rule="evenodd" stroke="none"/>
      <path d="M-10.85 -6.1 Q-12.1 -1.75 -9.2 -2.3 L-12.65 -1.55 Q-13.25 -3.2 -13.25 -4.25 L-13.15 -5.0 -10.85 -6.1" fill="#892116" fill-rule="evenodd" stroke="none"/>
      <path d="M-13.15 -5.0 L-12.9 -5.2 Q-13.1 -2.75 -10.85 -1.95 L-12.6 -1.6 Q-13.3 -3.05 -13.3 -4.2 L-13.15 -5.0" fill="#59120c" fill-rule="evenodd" stroke="none"/>
      <path d="M-10.6 -6.05 L-9.9 -6.35 -9.35 -2.7 Q-10.0 -6.05 -10.6 -6.05" fill="#ffffff" fill-rule="evenodd" stroke="none"/>
      <path d="M-8.75 -6.75 L-4.1 -7.25 -4.1 -2.85 -8.05 -2.5 -8.75 -6.75" fill="#34f13f" fill-rule="evenodd" stroke="none"/>
      <path d="M-8.7 -6.7 L-5.4 -7.1 Q-8.2 -2.95 -4.3 -2.9 L-8.0 -2.5 -8.7 -6.7" fill="#1d8723" fill-rule="evenodd" stroke="none"/>
      <path d="M-8.7 -6.7 L-8.15 -6.75 Q-8.0 -3.6 -5.4 -2.8 L-8.0 -2.5 -8.7 -6.7" fill="#064412" fill-rule="evenodd" stroke="none"/>
      <path d="M-5.25 -7.05 L-4.25 -7.15 -4.2 -3.05 Q-4.35 -6.8 -5.25 -7.05" fill="#ffffff" fill-rule="evenodd" stroke="none"/>
      <path d="M2.65 -2.85 L-3.0 -2.8 -3.15 -7.2 2.95 -7.35 2.65 -2.85" fill="#00a0fa" fill-rule="evenodd" stroke="none"/>
      <path d="M-3.15 -7.2 L1.15 -7.35 Q0.1 -6.7 -0.15 -4.8 -0.4 -3.1 1.05 -2.95 L-3.0 -2.8 -3.15 -7.2" fill="#005ad2" fill-rule="evenodd" stroke="none"/>
      <path d="M-3.15 -7.2 L-1.75 -7.2 Q-3.45 -5.5 -0.05 -3.0 L-3.0 -2.8 -3.15 -7.2" fill="#002f90" fill-rule="evenodd" stroke="none"/>
      <path d="M1.45 -7.35 L2.7 -7.2 Q2.75 -3.5 2.45 -3.0 2.45 -6.9 1.45 -7.35" fill="#ffffff" fill-rule="evenodd" stroke="none"/>
      <path d="M3.65 -7.45 L7.9 -6.8 7.1 -2.3 3.6 -2.75 3.65 -7.45" fill="#34f13f" fill-rule="evenodd" stroke="none"/>
      <path d="M3.65 -7.45 L6.4 -7.05 Q3.1 -3.7 6.65 -2.35 L3.6 -2.75 3.65 -7.45" fill="#1d8723" fill-rule="evenodd" stroke="none"/>
      <path d="M3.65 -7.45 L4.2 -7.4 Q3.65 -3.3 5.9 -2.45 L3.6 -2.75 3.65 -7.45" fill="#064412" fill-rule="evenodd" stroke="none"/>
      <path d="M7.0 -3.0 Q7.55 -6.3 6.65 -7.0 L7.7 -6.7 7.0 -3.0" fill="#ffffff" fill-rule="evenodd" stroke="none"/>
      <path d="M8.5 -6.65 Q9.3 -6.6 12.9 -5.35 13.65 -3.75 12.5 -1.5 L7.95 -2.25 8.5 -6.65" fill="#ff3d2b" fill-rule="evenodd" stroke="none"/>
      <path d="M8.5 -6.65 L12.0 -5.65 Q10.7 -5.65 11.05 -3.65 L11.65 -1.7 7.95 -2.25 8.5 -6.65" fill="#892116" fill-rule="evenodd" stroke="none"/>
      <path d="M8.5 -6.65 L9.15 -6.5 Q8.05 -3.6 10.5 -1.95 L7.95 -2.25 8.5 -6.65" fill="#59120c" fill-rule="evenodd" stroke="none"/>
      <path d="M11.95 -5.5 L12.9 -5.25 Q13.3 -3.7 12.4 -1.75 13.25 -4.2 11.95 -5.5" fill="#ffffff" fill-rule="evenodd" stroke="none"/>
      <path d="M6.05 -7.65 Q6.15 -5.25 3.9 -6.6 L0.9 -6.8 0.95 -1.15 Q2.95 2.25 -0.05 2.1 -3.3 2.3 -1.15 -1.35 -0.7 -5.15 -1.0 -6.65 L-4.2 -6.2 Q-6.1 -4.95 -6.2 -7.55 L-6.05 -8.45 Q-5.55 -9.25 -3.85 -8.75 0.15 -7.1 -2.45 -9.55 -5.4 -15.9 -0.35 -16.05 L0.5 -15.95 Q1.5 -15.75 2.1 -15.15 3.95 -13.3 1.2 -8.3 L4.15 -8.9 Q6.05 -10.1 6.05 -7.65" fill="#1c140c" fill-rule="evenodd" stroke="none"/>
      <path d="M0.05 -8.85 Q1.05 -10.05 1.3 -12.25 1.2 -14.15 -0.35 -14.25 L-1.55 -13.7 Q-2.75 -11.65 -0.55 -9.0 -0.05 -8.1 0.05 -8.85 M5.25 -8.45 Q5.6 -7.7 5.35 -7.05 5.35 -6.3 4.55 -6.9 L0.4 -7.4 0.4 -1.1 Q1.7 1.55 0.5 1.35 L-1.05 1.2 Q-1.95 1.55 -0.8 -1.0 -0.2 -4.55 -0.65 -7.2 L-4.55 -6.65 Q-5.45 -5.95 -5.4 -7.2 L-5.45 -8.15 Q-5.35 -9.0 -4.4 -8.45 L-1.15 -7.95 Q-0.55 -7.85 -0.95 -8.4 -3.1 -11.35 -2.5 -13.75 L-2.1 -14.65 Q-1.5 -15.5 -0.25 -15.55 1.45 -15.75 1.95 -13.7 2.3 -11.25 0.6 -8.65 L0.4 -8.2 Q0.35 -7.8 1.0 -8.0 L4.4 -8.6 4.75 -8.8 Q5.1 -8.9 5.25 -8.45" fill="#ffff1c" fill-rule="evenodd" stroke="none"/>
      <path d="M-0.3 -9.35 Q-3.25 -13.55 -0.1 -13.85 2.4 -12.5 -0.3 -9.35" fill="#024ab1" fill-rule="evenodd" stroke="none"/>
      <path d="M-0.3 -9.35 Q-2.65 -13.4 -0.45 -13.4 L0.4 -13.3 Q-0.35 -12.95 -0.4 -11.1 L-0.3 -9.35" fill="#012c6a" fill-rule="evenodd" stroke="none"/>
      <path d="M-0.75 -8.6 Q-3.6 -13.1 -1.9 -14.65 -1.05 -15.45 0.4 -15.35 -4.05 -14.85 -0.75 -8.6" fill="#b79f11" fill-rule="evenodd" stroke="none"/>
      <path d="M-5.1 -8.35 L-4.9 -8.25 Q-5.1 -7.45 -0.55 -7.3 L-4.1 -7.2 Q-5.9 -5.55 -5.1 -8.35" fill="#b79f11" fill-rule="evenodd" stroke="none"/>
      <path d="M-0.6 -1.0 Q0.0 -2.3 -0.55 -7.3 0.45 -6.8 -0.3 -0.75 -0.8 0.75 0.7 0.95 -2.5 2.3 -0.6 -1.0" fill="#b79f11" fill-rule="evenodd" stroke="none"/>
      <path d="M0.5 -7.55 Q4.15 -7.6 5.0 -8.55 5.45 -6.35 4.45 -7.2 L0.5 -7.55" fill="#b79f11" fill-rule="evenodd" stroke="none"/>
      <path d="M1.15 -9.95 Q2.75 -15.75 -1.0 -14.5 L-0.15 -15.1 Q0.8 -15.45 1.45 -14.5 2.45 -12.5 1.15 -9.95" fill="#ffffff" fill-rule="evenodd" stroke="none"/>
      <path d="M0.75 0.75 L-0.25 -0.05 Q0.65 0.2 0.2 -1.3 0.9 0.05 0.75 0.75" fill="#ffffff" fill-rule="evenodd" stroke="none"/>
      <path d="M-4.9 -8.45 L-0.9 -7.45 Q-5.0 -7.45 -4.9 -8.45" fill="#ffffff" fill-rule="evenodd" stroke="none"/>
    </g>
  </defs>
</svg>
